X: 23005
T: Last House In Ballymakea, The
R: hornpipe
M: 4/4
K: Gmajor
|:g|edBd dBAB|GABG AGED|GABG dGBG|EAAG A3 g|
edBd dBAB|GABG AGED|GABG dGBG|AGAB G3:|
|:A|BABd edef|gbag edBA|BABd ed (3efg|fedf e3 f|
edBe dBAd|BAGB AGED|GABG dGBG|AGAB G3:|

